X: 1
T:Heilan' Laddie  "CYMRU"
M:C
L:1/8
Q:80
C:Arr. P/M M. Morrison, Q.O.H
S:Reel
K:HP
[| B2|
{Gdc}d2{g}de{g}fA{g}Aa|
fe{g}de{g}f2Aa|  !
fe{A}ef{gef}e2de|
{g}fe{A}ef{gef}e2dB| |
{Gdc}d2{g}de{g}fA{g}Aa|  !
fe{g}de{g}faef|
{g}dB{G}Ba{Bd}B2{g}AB|
{g}dB{G}Ba{Bd}B2|] [|  !
{g}fg|
aA{g}A{d}A{g}fA{g}A{d}A|
{g}fade{g}fA{g}Aa|  !
fe{A}ef{gef}e2de|
{g}fe{A}ef{gef}e2{g}fg| |
aA{g}A{d}A{g}fA{g}A{d}A|  !
{g}fade{g}faef|
{g}dB{G}Ba{Bd}B2{g}AB|
{g}dB{G}Ba{Bd}B2|]  !
